X:1
T:Title
%%score { ( 1 3 ) | ( 2 4 ) }
L:1/8
M:6/8
K:Bb
V:1 treble nm="Grand Piano"
V:3 treble 
V:2 bass 
V:4 bass 
V:1
 z3 z2[Q:1/4=84] [DF] | [DF][EG][EA] [DB][EB][FB] | [GB][FA][EG] [DF]2 [DF] | BBB [=EB][Ec][Ed] | %4
[M:5/8] c-c- c3 |[M:1/8] F |[M:3/4] dd d[DB] [Ec][Fd] | [Ge][Ge] [EG] [Gc]2 [GB] | AG FF GA | %9
 [DB]6 | [DF]4 z2 | [DB]6 | [Fd]4 z2 |[M:5/8] c-c- c3 |[M:1/8] F |[M:3/4] dd d[DB] [Ec][Fd] | %16
 [Ge][Ge] [EG] [Gc]2 [GB] | AG FF GA |[M:7/4] [DB]6 z2 z2 z4 |] %19
V:2
 z3 z2 [B,,B,] | [B,,B,][B,,F,][B,,F,] [B,,F,][C,F,][D,B,] | [E,B,][E,B,][E,B,] [B,,B,]2 [B,,B,] | %3
 [G,B,D][G,B,D][G,B,D] [C,B,][C,B,][C,B,] |[M:5/8] [F,A,F]-[F,A,F]- [F,A,F]3 |[M:1/8] [F,A,] | %6
[M:3/4][K:treble] [B,F][B,F] [B,F][K:bass][B,,B,] [B,,B,][B,,B,] | %7
 [E,B,][E,B,] [E,B,] [E,E]2 [=E,C] | [F,CF][F,B,F] [F,A,][F,A,] [F,B,=E][F,C_E] | [B,,B,]6 | %10
 z2 z .B,3 | B,,D, F, .B,3 | [B,,B,]D, .F,2[K:treble] [A,CF][G,C=E] | %13
[M:5/8] F-[A,F-][G,F-] [F,F]2 |[M:1/8] [F,A,] | %15
[M:3/4] [B,F][B,F] [B,F][K:bass][B,,B,] [B,,B,][B,,B,] | [E,B,][E,B,] [E,B,] [E,E]2 [=E,C] | %17
 [F,CF][F,B,F] [F,A,][F,A,] [F,B,=E][F,C_E] |[M:7/4] [B,,B,]6 z2 z2 z4 |] %19
V:3
 x6 | x6 | x6 | x6 |[M:5/8] x5 |[M:1/8] x |[M:3/4] x6 | x6 | x6 | x6 | z B, .B,2 GF | %11
 B,B, .B,2 z2 | z B, B,B, cB |[M:5/8] z CB, A,2 |[M:1/8] x |[M:3/4] x6 | x6 | x6 |[M:7/4] x14 |] %19
V:4
 x6 | x6 | x6 | x6 |[M:5/8] x5 |[M:1/8] x |[M:3/4][K:treble] x3[K:bass] x3 | x6 | x6 | x6 | %10
 [B,,B,]D, .F,2 ED | x6 | x4[K:treble] x2 |[M:5/8] [F,A,] z z z2 |[M:1/8] x | %15
[M:3/4] x3[K:bass] x3 | x6 | x6 |[M:7/4] x14 |] %19

